X:174
T: Általmenék a temetőn...
M: 2/4
L: 1/4
K: C
d/d/d/d/ | de | dc | 
d/d/d/d/ | cB | GG | 
B/B/d/d/ | cB | AG | 
B/B/d/d/ | cB | GG | 

